svg/twitter.svg

<?xml version="1.0" encoding="UTF-8"?>
<svg width="39px" height="39px" viewBox="0 0 39 39" version="1.1" xmlns="http://www.w3.org/2000/svg" xmlns:xlink="http://www.w3.org/1999/xlink">
    <title>Group 11</title>
    <g id="Page-1" stroke="none" stroke-width="1" fill="none" fill-rule="evenodd">
        <g id="Home_1" transform="translate(-1202.000000, -4842.000000)">
            <g id="Group-21" transform="translate(1049.000000, 4842.212036)">
                <g id="Group-11" transform="translate(153.461538, 0.000000)">
                    <path d="M19,38 C8.506585,38 0,29.493415 0,19 C0,8.506585 8.506585,0 19,0 C29.493415,0 38,8.506585 38,19 C38,29.493415 29.493415,38 19,38 Z" id="Fill-1" fill="#FFFFFF"></path>
                    <path d="M15.6638985,29.2307692 C23.937108,29.2307692 28.4613781,22.4838438 28.4613781,16.6334657 C28.4613781,16.4417223 28.4573666,16.2508972 28.4485041,16.0610822 C29.3266399,15.4361713 30.0900295,14.6564331 30.6923077,13.7686097 C29.8863781,14.1209658 29.0191571,14.3585329 28.1093028,14.465608 C29.0379083,13.9175598 29.7508282,13.0502147 30.0871375,12.0163798 C29.2178642,12.5235631 28.2556743,12.8924488 27.2311669,13.0910796 C26.4104043,12.23053 25.2414845,11.6923077 23.9479296,11.6923077 C21.4638118,11.6923077 19.4495008,13.6751256 19.4495008,16.1194868 C19.4495008,16.4669758 19.4889624,16.8048226 19.5662062,17.1289865 C15.8280884,16.9440386 12.5132259,15.1820746 10.2951702,12.5031766 C9.90848445,13.1572898 9.68598854,13.9175598 9.68598854,14.7284287 C9.68598854,16.26458 10.4800704,17.6205586 11.6875188,18.4137959 C10.949784,18.391481 10.2565483,18.1919319 9.65035188,17.8599623 C9.6493257,17.8784204 9.6493257,17.8970621 9.6493257,17.9164385 C9.6493257,20.060971 11.1999869,21.8511272 13.2578642,22.2571127 C12.8801342,22.3582188 12.4825336,22.4128583 12.0722455,22.4128583 C11.7824877,22.4128583 11.5006596,22.3845743 11.2266678,22.3329652 C11.7992799,24.0919906 13.4596498,25.3720249 15.4285286,25.4081145 C13.8888756,26.5957666 11.9495696,27.3034173 9.84224877,27.3034173 C9.47925859,27.3034173 9.12130606,27.282939 8.76923077,27.2420741 C10.7599394,28.4978649 13.1234337,29.2307692 15.6638985,29.2307692" id="Fill-3" fill="#00D36C"></path>
                </g>
            </g>
        </g>
    </g>
</svg>

<?xml version="1.0" encoding="utf-8"?>
<!-- Generator: Adobe Illustrator 25.1.0, SVG Export Plug-In . SVG Version: 6.00 Build 0)  -->
<svg version="1.0" id="Layer_1" xmlns="http://www.w3.org/2000/svg" xmlns:xlink="http://www.w3.org/1999/xlink" x="0px" y="0px"
	 viewBox="0 0 39 39" style="enable-background:new 0 0 39 39;" xml:space="preserve">
<style type="text/css">
	.st0{fill-rule:evenodd;clip-rule:evenodd;fill:#FFFFFF;}
	.st1{fill-rule:evenodd;clip-rule:evenodd;fill:#00D877;}
</style>
<g id="Page-1">
	<g id="Home_1" transform="translate(-1202.000000, -4842.000000)">
		<g id="Group-21" transform="translate(1049.000000, 4842.212036)">
			<g id="Group-11" transform="translate(153.461538, 0.000000)">
				<path id="Fill-1" class="st0" d="M19,38C8.51,38,0,29.49,0,19S8.51,0,19,0s19,8.51,19,19S29.49,38,19,38z"/>
				<path id="Fill-3" class="st1" d="M15.66,29.23c8.27,0,12.8-6.75,12.8-12.6c0-0.19,0-0.38-0.01-0.57
					c0.88-0.62,1.64-1.4,2.24-2.29c-0.81,0.35-1.67,0.59-2.58,0.7c0.93-0.55,1.64-1.42,1.98-2.45c-0.87,0.51-1.83,0.88-2.86,1.07
					c-0.82-0.86-1.99-1.4-3.28-1.4c-2.48,0-4.5,1.98-4.5,4.43c0,0.35,0.04,0.69,0.12,1.01c-3.74-0.18-7.05-1.95-9.27-4.63
					c-0.39,0.65-0.61,1.41-0.61,2.23c0,1.54,0.79,2.89,2,3.69c-0.74-0.02-1.43-0.22-2.04-0.55c0,0.02,0,0.04,0,0.06
					c0,2.14,1.55,3.93,3.61,4.34c-0.38,0.1-0.78,0.16-1.19,0.16c-0.29,0-0.57-0.03-0.85-0.08c0.57,1.76,2.23,3.04,4.2,3.08
					c-1.54,1.19-3.48,1.9-5.59,1.9c-0.36,0-0.72-0.02-1.07-0.06C10.76,28.5,13.12,29.23,15.66,29.23"/>
			</g>
		</g>
	</g>
</g>
</svg>
